;FLAVOR:Marlin
;TIME:22639
;Filament used: 6.97385m
;Layer height: 0.15
;MINX:4.8
;MINY:34.3
;MINZ:0.3
;MAXX:200.2
;MAXY:170.7
;MAXZ:9.9
;Generated with Cura_SteamEngine 4.4.0
M140 S68
M105
M190 S68
M104 S215
M105
M109 S215
M82 ;absolute extrusion mode
G21 ;metric values
G90 ;absolute positioning
M82 ;set extruder to absolute mode
M107 ;start with the fan off
G28 X0 Y0 ;move X/Y to min endstops
G28 Z0 ;move Z to min endstops
G1 Z15.0 F9000 ;move the platform down 15mm
G92 E0 ;zero the extruded length
G1 F200 E20 ;extrude 20 mm of feed stock
G92 E0 ;zero the extruded length again
G1 F9000
M117 Printing...
G92 E0
G92 E0
G1 F1500 E-6.5
;LAYER_COUNT:65
;LAYER:0
M107
G0 F2400 X27.448 Y36.065 Z0.3
;TYPE:SKIRT
G1 F1500 E0
G1 F1200 X27.808 Y35.804 E0.00836
G1 X28.001 Y35.684 E0.01264
G1 X28.105 Y35.623 E0.01491
G1 X28.99 Y35.118 E0.03407
G1 X29.448 Y34.903 E0.04359
G1 X29.878 Y34.774 E0.05204
G1 X30.433 Y34.65 E0.06273
G1 X30.499 Y34.636 E0.064
G1 X31.189 Y34.497 E0.07724
G1 X31.247 Y34.486 E0.07835
G1 X31.922 Y34.363 E0.09126
G1 X32.444 Y34.311 E0.10113
G1 X33.115 Y34.3 E0.11375
G1 X171.839 Y34.3 E2.72323
G1 X172.537 Y34.31 E2.73636
G1 X173.058 Y34.361 E2.7462
G1 X173.691 Y34.475 E2.7583
G1 X173.751 Y34.486 E2.75945
G1 X174.382 Y34.612 E2.77155
G1 X174.428 Y34.622 E2.77244
G1 X175.079 Y34.762 E2.78497
G1 X175.563 Y34.907 E2.79447
G1 X175.958 Y35.092 E2.80267
G1 X176.315 Y35.29 E2.81035
G1 X176.373 Y35.323 E2.81161
G1 X177.103 Y35.748 E2.8275
G1 X177.576 Y36.084 E2.83841
G1 X178.095 Y36.529 E2.85127
G1 X178.452 Y36.887 E2.86078
G1 X178.629 Y37.117 E2.86624
G1 X178.992 Y37.633 E2.87811
G1 X179.037 Y37.698 E2.8796
G1 X179.348 Y38.164 E2.89013
G1 X179.368 Y38.194 E2.89081
G1 X179.786 Y38.836 E2.90522
G1 X180.027 Y39.28 E2.91473
G1 X180.229 Y39.894 E2.92688
G1 X180.36 Y40.489 E2.93834
G1 X180.373 Y40.552 E2.93955
G1 X180.476 Y41.069 E2.94947
G1 X180.485 Y41.114 E2.95033
G1 X180.755 Y42.578 E2.97834
G1 X181.28 Y45.219 E3.02899
G1 X181.902 Y47.942 E3.08153
G1 X182.59 Y50.597 E3.13312
G1 X183.341 Y53.199 E3.18406
G1 X184.184 Y55.837 E3.23616
G1 X185.08 Y58.387 E3.287
G1 X186.06 Y60.942 E3.33847
G1 X187.115 Y63.483 E3.39023
G1 X188.244 Y65.989 E3.44193
G1 X189.433 Y68.448 E3.49331
G1 X190.702 Y70.89 E3.54508
G1 X192.023 Y73.265 E3.5962
G1 X193.428 Y75.631 E3.64796
G1 X194.879 Y77.926 E3.69903
G1 X196.421 Y80.217 E3.75098
G1 X197.648 Y81.946 E3.79086
G1 X198.168 Y82.663 E3.80752
G1 X198.216 Y82.73 E3.80907
G1 X198.513 Y83.162 E3.81893
G1 X198.539 Y83.2 E3.8198
G1 X198.849 Y83.665 E3.83031
G1 X198.868 Y83.694 E3.83096
G1 X199.286 Y84.336 E3.84538
G1 X199.527 Y84.78 E3.85488
G1 X199.73 Y85.397 E3.8671
G1 X199.87 Y86.036 E3.8794
G1 X199.882 Y86.095 E3.88053
G1 X199.983 Y86.601 E3.89024
G1 X199.991 Y86.643 E3.89104
G1 X200.113 Y87.3 E3.90361
G1 X200.166 Y87.822 E3.91348
G1 X200.179 Y88.496 E3.92616
G1 X200.18 Y88.556 E3.92729
G1 X200.2 Y116.291 E4.449
G1 X200.2 Y116.339 E4.44991
G1 X200.19 Y117.038 E4.46306
G1 X200.139 Y117.562 E4.47296
G1 X200.021 Y118.214 E4.48542
G1 X200.011 Y118.268 E4.48646
G1 X199.859 Y119.033 E4.50113
G1 X199.845 Y119.1 E4.50242
G1 X199.736 Y119.593 E4.51191
G1 X199.588 Y120.076 E4.52142
G1 X199.347 Y120.562 E4.53162
G1 X199.205 Y120.796 E4.53677
G1 X199.133 Y120.909 E4.53929
G1 X198.638 Y121.653 E4.5561
G1 X198.608 Y121.697 E4.5571
G1 X198.23 Y122.245 E4.56962
G1 X198.179 Y122.317 E4.57128
G1 X197.812 Y122.819 E4.58298
G1 X196.23 Y125.05 E4.63443
G1 X194.715 Y127.318 E4.68573
G1 X193.252 Y129.648 E4.73748
G1 X191.865 Y132.004 E4.78891
G1 X190.538 Y134.409 E4.84058
G1 X189.284 Y136.846 E4.89213
G1 X188.105 Y139.303 E4.9434
G1 X186.995 Y141.795 E4.99471
G1 X185.949 Y144.334 E5.04637
G1 X184.949 Y146.968 E5.09936
G1 X184.079 Y149.477 E5.14932
G1 X183.255 Y152.086 E5.20078
G1 X182.51 Y154.702 E5.25195
G1 X181.822 Y157.398 E5.30429
G1 X181.218 Y160.095 E5.35628
G1 X180.773 Y162.348 E5.39947
G1 X180.514 Y163.749 E5.42627
G1 X180.506 Y163.791 E5.42708
G1 X180.355 Y164.551 E5.44165
G1 X180.341 Y164.618 E5.44294
G1 X180.236 Y165.093 E5.45209
G1 X180.088 Y165.576 E5.4616
G1 X179.847 Y166.062 E5.4718
G1 X179.705 Y166.296 E5.47695
G1 X179.633 Y166.409 E5.47947
G1 X179.138 Y167.153 E5.49628
G1 X179.103 Y167.205 E5.49746
G1 X178.81 Y167.627 E5.50712
G1 X178.709 Y167.764 E5.51032
G1 X178.494 Y168.041 E5.51692
G1 X178.087 Y168.475 E5.52811
G1 X177.852 Y168.683 E5.53401
G1 X177.787 Y168.739 E5.53563
G1 X177.57 Y168.921 E5.54096
G1 X177.227 Y169.172 E5.54895
G1 X177.044 Y169.288 E5.55303
G1 X176.918 Y169.364 E5.55579
G1 X176.013 Y169.881 E5.5754
G1 X175.556 Y170.096 E5.5849
G1 X175.127 Y170.224 E5.59332
G1 X174.57 Y170.349 E5.60406
G1 X174.501 Y170.364 E5.60539
G1 X173.811 Y170.503 E5.61863
G1 X173.753 Y170.514 E5.61974
G1 X173.078 Y170.637 E5.63264
G1 X172.556 Y170.689 E5.64251
G1 X171.885 Y170.7 E5.65514
G1 X33.161 Y170.7 E8.26461
G1 X32.463 Y170.69 E8.27774
G1 X31.942 Y170.639 E8.28759
G1 X31.309 Y170.525 E8.29969
G1 X31.249 Y170.514 E8.30084
G1 X30.618 Y170.388 E8.31294
G1 X30.572 Y170.378 E8.31382
G1 X29.921 Y170.238 E8.32635
G1 X29.437 Y170.093 E8.33585
G1 X29.042 Y169.908 E8.34406
G1 X28.685 Y169.71 E8.35174
G1 X28.627 Y169.677 E8.35299
G1 X27.897 Y169.252 E8.36888
G1 X27.424 Y168.916 E8.3798
G1 X26.905 Y168.471 E8.39266
G1 X26.548 Y168.113 E8.40217
G1 X26.369 Y167.88 E8.40769
G1 X26.002 Y167.357 E8.41971
G1 X25.962 Y167.299 E8.42104
G1 X25.64 Y166.818 E8.43193
G1 X25.615 Y166.781 E8.43277
G1 X25.209 Y166.156 E8.44678
G1 X24.968 Y165.712 E8.45629
G1 X24.765 Y165.089 E8.46861
G1 X24.628 Y164.455 E8.48081
G1 X24.617 Y164.403 E8.48181
G1 X24.523 Y163.93 E8.49089
G1 X24.515 Y163.886 E8.49173
G1 X24.245 Y162.422 E8.51973
G1 X23.72 Y159.781 E8.57038
G1 X23.098 Y157.058 E8.62292
G1 X22.41 Y154.402 E8.67453
G1 X21.656 Y151.79 E8.72567
G1 X20.819 Y149.172 E8.77737
G1 X19.921 Y146.613 E8.82839
G1 X18.94 Y144.058 E8.87987
G1 X17.879 Y141.504 E8.93189
G1 X16.756 Y139.008 E8.98337
G1 X15.568 Y136.553 E9.03468
G1 X14.311 Y134.134 E9.08596
G1 X12.969 Y131.723 E9.13786
G1 X11.572 Y129.369 E9.18935
G1 X10.121 Y127.074 E9.24043
G1 X8.578 Y124.782 E9.2924
G1 X7.352 Y123.054 E9.33225
G1 X6.829 Y122.334 E9.34899
G1 X6.78 Y122.264 E9.3506
G1 X6.478 Y121.824 E9.36064
G1 X6.453 Y121.788 E9.36146
G1 X6.151 Y121.335 E9.37171
G1 X6.132 Y121.305 E9.37237
G1 X5.711 Y120.658 E9.38689
G1 X5.469 Y120.214 E9.39641
G1 X5.265 Y119.589 E9.40877
G1 X5.128 Y118.955 E9.42097
G1 X5.117 Y118.902 E9.42199
G1 X5.006 Y118.343 E9.43271
G1 X4.998 Y118.302 E9.4335
G1 X4.886 Y117.696 E9.44509
G1 X4.834 Y117.176 E9.45492
G1 X4.821 Y116.504 E9.46756
G1 X4.82 Y116.444 E9.46869
G1 X4.8 Y88.709 E9.9904
G1 X4.8 Y88.661 E9.99131
G1 X4.81 Y87.962 E10.00446
G1 X4.861 Y87.437 E10.01438
G1 X4.983 Y86.764 E10.02724
G1 X4.994 Y86.709 E10.0283
G1 X5.146 Y85.947 E10.04292
G1 X5.159 Y85.882 E10.04416
G1 X5.264 Y85.407 E10.05331
G1 X5.412 Y84.924 E10.06282
G1 X5.66 Y84.427 E10.07326
G1 X5.802 Y84.195 E10.07838
G1 X5.866 Y84.094 E10.08063
G1 X6.362 Y83.348 E10.09748
G1 X6.394 Y83.301 E10.09855
G1 X6.772 Y82.754 E10.11106
G1 X6.821 Y82.685 E10.11265
G1 X7.187 Y82.184 E10.12432
G1 X8.758 Y79.968 E10.17542
G1 X10.307 Y77.65 E10.22786
G1 X11.739 Y75.369 E10.27852
G1 X13.135 Y72.997 E10.33029
G1 X14.47 Y70.577 E10.38228
G1 X15.709 Y68.17 E10.43321
G1 X16.895 Y65.697 E10.4848
G1 X18.005 Y63.206 E10.5361
G1 X19.064 Y60.636 E10.58838
G1 X20.025 Y58.099 E10.63941
G1 X20.928 Y55.499 E10.69119
G1 X21.738 Y52.933 E10.7418
G1 X22.501 Y50.256 E10.79416
G1 X23.172 Y47.623 E10.84527
G1 X23.78 Y44.923 E10.89733
G1 X24.234 Y42.616 E10.94156
G1 X24.493 Y41.213 E10.9684
G1 X24.502 Y41.169 E10.96924
G1 X24.646 Y40.447 E10.98309
G1 X24.659 Y40.382 E10.98434
G1 X24.764 Y39.907 E10.99349
G1 X24.912 Y39.424 E11.00299
G1 X25.16 Y38.927 E11.01344
G1 X25.302 Y38.695 E11.01856
G1 X25.366 Y38.594 E11.02081
G1 X25.862 Y37.848 E11.03766
G1 X25.892 Y37.805 E11.03865
G1 X26.184 Y37.381 E11.04833
G1 X26.299 Y37.224 E11.05199
G1 X26.515 Y36.948 E11.05858
G1 X26.915 Y36.523 E11.06956
G1 X27.149 Y36.316 E11.07544
G1 X27.219 Y36.256 E11.07717
G1 X27.448 Y36.065 E11.08278
G1 F1500 E4.58278
;MESH:Subwoofer Speaker Cover.stl
G0 F2400 X28.866 Y38.237
G0 X29.474 Y39.105
G0 X48.942 Y66.463
;TYPE:WALL-INNER
G1 F1500 E11.08278
G1 F1200 X49.282 Y67.1 E11.09636
G1 X155.718 Y67.1 E13.09848
G1 X156.057 Y66.466 E13.11201
G1 X154.818 Y64.612 E13.15395
G1 X151.781 Y60.744 E13.24646
G1 X148.353 Y57.007 E13.34185
G1 X145.022 Y53.9 E13.42753
G1 X59.981 Y53.9 E15.0272
G1 X56.82 Y56.82 E15.10815
G1 X53.55 Y60.359 E15.19879
G1 X50.397 Y64.328 E15.29414
G1 X48.942 Y66.463 E15.34274
G0 F2400 X45.21 Y73.024
G0 X43.476 Y76.748
G0 X41.585 Y81.1
G1 F1200 X41.873 Y81.1 E15.34816
G1 X41.874 Y81.1 E15.34817
G1 X163.123 Y81.1 E17.62894
G1 X163.124 Y81.1 E17.62895
G1 X163.409 Y81.1 E17.63432
G1 X163.31 Y80.832 E17.63748
G1 X162.23 Y77.905 E17.69617
G1 X160.166 Y73.403 E17.78933
G1 X157.709 Y68.974 E17.8846
G1 X157.215 Y68.197 E17.90192
G1 X157.009 Y67.9 E17.90872
G1 X47.984 Y67.9 E19.95954
G1 X47.439 Y68.717 E19.97802
G1 X45.066 Y72.952 E20.06933
G1 X42.925 Y77.546 E20.16467
G1 X41.686 Y80.83 E20.2307
G1 X41.585 Y81.1 E20.23389
G0 F2400 X39.91 Y87.217
G0 X38.369 Y95.1
G1 F1200 X38.595 Y95.1 E20.23814
G1 X38.596 Y95.1 E20.23816
G1 X166.401 Y95.1 E22.64225
G1 X166.402 Y95.1 E22.64227
G1 X166.625 Y95.1 E22.64646
G1 X166.599 Y94.878 E22.6491
G1 X166.318 Y92.497 E22.69419
G1 X165.366 Y87.668 E22.78678
G1 X164.012 Y82.792 E22.88197
G1 X163.72 Y81.9 E22.89962
G1 X41.262 Y81.9 E25.20313
G1 X39.754 Y87.174 E25.30631
G1 X38.746 Y92.143 E25.40168
G1 X38.397 Y94.875 E25.45349
G1 X38.369 Y95.1 E25.45616
G0 F2400 X16.662 Y92.085
G1 F1200 X17.666 Y90 E25.49969
G1 X16.661 Y87.915 E25.54323
G1 X14.407 Y87.401 E25.58671
G1 X12.598 Y88.843 E25.63023
G1 X12.598 Y91.157 E25.67376
G1 X14.407 Y92.599 E25.71727
G1 X16.662 Y92.085 E25.76078
G0 F2400 X17.484 Y115
G0 X16.662 Y117.085
G1 F1200 X17.666 Y115 E25.80431
G1 X16.661 Y112.915 E25.84785
G1 X14.407 Y112.401 E25.89134
G1 X12.598 Y113.843 E25.93485
G1 X12.598 Y116.157 E25.97838
G1 X14.407 Y117.599 E26.0219
G1 X16.662 Y117.085 E26.0654
G0 F2400 X27.928 Y121.572
G0 X61.919 Y152.707
G1 F1200 X64.529 Y154.763 E26.1279
G1 X68.746 Y157.581 E26.22331
G1 X73.172 Y160.059 E26.31872
G1 X77.778 Y162.183 E26.41413
G1 X82.537 Y163.939 E26.50955
G1 X86.655 Y165.1 E26.59003
G1 X118.345 Y165.1 E27.18614
G1 X122.463 Y163.939 E27.26662
G1 X127.222 Y162.183 E27.36204
G1 X131.828 Y160.059 E27.45745
G1 X136.254 Y157.581 E27.55287
G1 X140.471 Y154.763 E27.64827
G1 X143.081 Y152.707 E27.71077
G1 X142.799 Y151.9 E27.72685
G1 X62.201 Y151.9 E29.24294
G1 X61.919 Y152.707 E29.25902
G0 F2400 X144.955 Y150.937
G0 X148.067 Y148.067
G0 X151.001 Y144.891
G0 X156.058 Y138.537
G1 F1200 X155.718 Y137.9 E29.27261
G1 X49.282 Y137.9 E31.27473
G1 X48.943 Y138.534 E31.28825
G1 X50.182 Y140.388 E31.3302
G1 X53.219 Y144.256 E31.4227
G1 X56.647 Y147.993 E31.51809
G1 X59.978 Y151.1 E31.60378
G1 X145.019 Y151.1 E33.20345
G1 X148.18 Y148.18 E33.28439
G1 X151.45 Y144.641 E33.37503
G1 X154.603 Y140.672 E33.47038
G1 X156.058 Y138.537 E33.51898
G0 F2400 X159.79 Y131.976
G0 X161.524 Y128.252
G0 X163.415 Y123.9
G1 F1200 X163.127 Y123.9 E33.5244
G1 X163.126 Y123.9 E33.52442
G1 X41.877 Y123.9 E35.80518
G1 X41.876 Y123.9 E35.8052
G1 X41.591 Y123.9 E35.81056
G1 X41.69 Y124.168 E35.81373
G1 X42.77 Y127.095 E35.87241
G1 X44.834 Y131.597 E35.96557
G1 X47.291 Y136.026 E36.06085
G1 X47.785 Y136.803 E36.07817
G1 X47.991 Y137.1 E36.08497
G1 X157.016 Y137.1 E38.13579
G1 X157.561 Y136.283 E38.15426
G1 X159.934 Y132.048 E38.24558
G1 X162.075 Y127.454 E38.34092
G1 X163.314 Y124.17 E38.40694
G1 X163.415 Y123.9 E38.41014
G0 F2400 X176.9 Y121.4
G1 F1200 X176.9 Y162.443 E39.18218
G1 X176.555 Y164.178 E39.21545
G1 X175.597 Y165.607 E39.24781
G1 X174.178 Y166.555 E39.27992
G1 X172.443 Y166.9 E39.31319
G1 X32.557 Y166.9 E41.94452
G1 X30.822 Y166.555 E41.9778
G1 X29.398 Y165.603 E42.01002
G1 X28.445 Y164.178 E42.04227
G1 X28.12 Y162.54 E42.07368
G1 X28.1 Y121.4 E42.84755
G1 X13.057 Y121.4 E43.13051
G1 X11.322 Y121.055 E43.16379
G1 X9.898 Y120.102 E43.19602
G1 X8.945 Y118.678 E43.22825
G1 X8.62 Y117.04 E43.25966
G1 X8.6 Y88.057 E43.80485
G1 X8.945 Y86.322 E43.83813
G1 X9.877 Y84.928 E43.86967
G1 X9.927 Y84.878 E43.871
G1 X11.322 Y83.945 E43.90257
G1 X13.057 Y83.6 E43.93584
G1 X28.1 Y83.6 E44.21881
G1 X28.1 Y42.557 E44.99085
G1 X28.445 Y40.822 E45.02413
G1 X29.403 Y39.393 E45.05649
G1 X30.822 Y38.445 E45.08859
G1 X32.557 Y38.1 E45.12186
G1 X172.443 Y38.1 E47.7532
G1 X174.178 Y38.445 E47.78647
G1 X175.602 Y39.397 E47.81869
G1 X176.555 Y40.822 E47.85094
G1 X176.88 Y42.46 E47.88235
G1 X176.9 Y83.6 E48.65622
G1 X191.943 Y83.6 E48.93919
G1 X193.678 Y83.945 E48.97246
G1 X195.102 Y84.898 E49.00469
G1 X196.055 Y86.322 E49.03693
G1 X196.38 Y87.96 E49.06834
G1 X196.4 Y116.943 E49.61352
G1 X196.055 Y118.678 E49.6468
G1 X195.123 Y120.072 E49.67834
G1 X195.073 Y120.122 E49.67967
G1 X193.678 Y121.055 E49.71124
G1 X191.943 Y121.4 E49.74452
G1 X176.9 Y121.4 E50.02748
G0 F2400 X191.662 Y117.085
G1 F1200 X192.666 Y115 E50.07101
G1 X191.661 Y112.915 E50.11455
G1 X189.407 Y112.401 E50.15804
G1 X187.598 Y113.843 E50.20156
G1 X187.598 Y116.157 E50.24508
G1 X189.407 Y117.599 E50.2886
G1 X191.662 Y117.085 E50.33211
G0 F2400 X192.484 Y115
G0 X191.662 Y92.085
G1 F1200 X192.666 Y90 E50.37564
G1 X191.661 Y87.915 E50.41917
G1 X189.407 Y87.401 E50.46266
G1 X187.598 Y88.843 E50.50618
G1 X187.598 Y91.157 E50.54971
G1 X189.407 Y92.599 E50.59322
G1 X191.662 Y92.085 E50.63673
G0 F2400 X166.721 Y109.1
G1 F1200 X166.895 Y107.618 E50.6648
G1 X167.089 Y102.754 E50.75636
G1 X166.913 Y97.69 E50.85168
G1 X166.79 Y96.478 E50.87459
G1 X166.708 Y95.9 E50.88558
G1 X38.279 Y95.9 E53.3014
G1 X38.105 Y97.382 E53.32946
G1 X37.911 Y102.246 E53.42103
G1 X38.087 Y107.31 E53.51635
G1 X38.21 Y108.522 E53.53926
G1 X38.292 Y109.1 E53.55024
G1 X166.721 Y109.1 E55.96606
G0 F2400 X166.631 Y109.9
G1 F1200 X166.405 Y109.9 E55.97032
G1 X166.404 Y109.9 E55.97033
G1 X38.599 Y109.9 E58.37442
G1 X38.598 Y109.9 E58.37444
G1 X38.375 Y109.9 E58.37863
G1 X38.401 Y110.122 E58.38127
G1 X38.682 Y112.503 E58.42636
G1 X39.634 Y117.332 E58.51895
G1 X40.988 Y122.208 E58.61414
G1 X41.28 Y123.1 E58.6318
G1 X163.738 Y123.1 E60.9353
G1 X165.246 Y117.826 E61.03848
G1 X166.254 Y112.857 E61.13385
G1 X166.603 Y110.125 E61.18566
G1 X166.631 Y109.9 E61.18833
G0 F2400 X166.928 Y102.753
G0 X166.752 Y97.698
G0 X166.159 Y92.519
G0 X165.21 Y87.707
G0 X163.598 Y82.068
G0 X41.842 Y80.922
G0 X43.068 Y77.622
G0 X45.21 Y73.024
G0 X47.576 Y68.802
G0 X50.529 Y64.42
G0 X53.673 Y60.462
G0 X56.607 Y57.286
G0 X61.919 Y52.293
G1 F1200 X62.201 Y53.1 E61.20441
G1 X142.799 Y53.1 E62.7205
G1 X143.081 Y52.293 E62.73658
G1 X140.471 Y50.237 E62.79908
G1 X136.254 Y47.419 E62.89449
G1 X131.828 Y44.941 E62.9899
G1 X127.222 Y42.817 E63.08531
G1 X122.463 Y41.061 E63.18073
G1 X118.345 Y39.9 E63.26121
G1 X86.655 Y39.9 E63.85732
G1 X82.537 Y41.061 E63.9378
G1 X77.778 Y42.817 E64.03322
G1 X73.172 Y44.941 E64.12863
G1 X68.746 Y47.419 E64.22405
G1 X64.529 Y50.237 E64.31945
G1 X61.919 Y52.293 E64.38195
G0 F2400 X62.391 Y52.431
;TYPE:WALL-OUTER
G1 F1200 X62.485 Y52.7 E64.38731
G1 X62.652 Y52.7 E64.39045
G1 X142.348 Y52.7 E65.88958
G1 X142.515 Y52.7 E65.89272
G1 X142.609 Y52.431 E65.89808
G1 X142.478 Y52.328 E65.90078
G1 X140.236 Y50.561 E65.95448
G1 X136.045 Y47.76 E66.0493
G1 X131.646 Y45.298 E66.14413
G1 X127.069 Y43.187 E66.23894
G1 X122.339 Y41.442 E66.33377
G1 X118.29 Y40.3 E66.41291
G1 X86.71 Y40.3 E67.00695
G1 X82.661 Y41.442 E67.08608
G1 X77.931 Y43.187 E67.18092
G1 X73.354 Y45.298 E67.27573
G1 X68.955 Y47.76 E67.37055
G1 X64.764 Y50.561 E67.46538
G1 X62.522 Y52.328 E67.51907
G1 X62.391 Y52.431 E67.52178
G0 F2400 X62.457 Y52.62
G0 X62.174 Y52.717
G0 X60.045 Y54.063
G0 X56.933 Y56.933
G0 X53.673 Y60.462
G0 X51.127 Y63.667
G0 X49.163 Y66.319
G0 X49.409 Y66.488
G1 F1200 X49.522 Y66.7 E67.5263
G1 X49.673 Y66.7 E67.52914
G1 X155.328 Y66.7 E69.51656
G1 X155.478 Y66.7 E69.51939
G1 X155.591 Y66.489 E69.52389
G1 X155.508 Y66.365 E69.5267
G1 X154.494 Y64.847 E69.56103
G1 X151.476 Y61.003 E69.65297
