;FLAVOR:Marlin
;TIME:398
;Filament used: 0.079068m
;Layer height: 0.15
;MINX:85.652
;MINY:95.647
;MINZ:0.3
;MAXX:119.352
;MAXY:119.348
;MAXZ:6
;Generated with Cura_SteamEngine 4.4.0
M140 S68
M105
M190 S68
M104 S215
M105
M109 S215
M82 ;absolute extrusion mode
G21 ;metric values
G90 ;absolute positioning
M82 ;set extruder to absolute mode
M107 ;start with the fan off
G28 X0 Y0 ;move X/Y to min endstops
G28 Z0 ;move Z to min endstops
G1 Z15.0 F9000 ;move the platform down 15mm
G92 E0 ;zero the extruded length
G1 F200 E20 ;extrude 20 mm of feed stock
G92 E0 ;zero the extruded length again
G1 F9000
M117 Printing...
G92 E0
G92 E0
G1 F1500 E-6.5
;LAYER_COUNT:39
;LAYER:0
M107
G0 F2400 X87.94 Y97.394 Z0.3
;TYPE:SKIRT
G1 F1500 E0
G1 F1200 X88.578 Y96.898 E0.0152
G1 X89.174 Y96.524 E0.02844
G1 X89.673 Y96.258 E0.03907
G1 X90.035 Y96.117 E0.04638
G1 X90.617 Y95.923 E0.05792
G1 X91.165 Y95.783 E0.06856
G1 X91.501 Y95.736 E0.07494
G1 X92.233 Y95.666 E0.08877
G1 X92.724 Y95.65 E0.09802
G1 X93.963 Y95.684 E0.12133
G1 X94.033 Y95.686 E0.12265
G1 X94.769 Y95.719 E0.13651
G1 X97.44 Y95.764 E0.18676
G1 X100.19 Y95.732 E0.23849
G1 X101.895 Y95.665 E0.27059
G1 X101.956 Y95.663 E0.27173
G1 X102.628 Y95.647 E0.28438
G1 X102.85 Y95.648 E0.28855
G1 X103.98 Y95.684 E0.30982
G1 X104.033 Y95.686 E0.31082
G1 X104.769 Y95.719 E0.32468
G1 X107.44 Y95.764 E0.37493
G1 X110.19 Y95.732 E0.42666
G1 X111.895 Y95.665 E0.45876
G1 X111.952 Y95.663 E0.45983
G1 X112.598 Y95.647 E0.47198
G1 X113.399 Y95.708 E0.4871
G1 X113.87 Y95.792 E0.49609
G1 X114.006 Y95.819 E0.4987
G1 X114.216 Y95.864 E0.50274
G1 X114.858 Y96.059 E0.51536
G1 X115.089 Y96.151 E0.52004
G1 X115.191 Y96.193 E0.52212
G1 X115.386 Y96.277 E0.52611
G1 X115.976 Y96.592 E0.53869
G1 X116.259 Y96.775 E0.54503
G1 X116.356 Y96.84 E0.54723
G1 X116.597 Y97.006 E0.55273
G1 X117.218 Y97.535 E0.56808
G1 X117.593 Y97.927 E0.57828
G1 X118.08 Y98.548 E0.59313
G1 X118.459 Y99.145 E0.60643
G1 X118.727 Y99.643 E0.61707
G1 X118.871 Y100.007 E0.62443
G1 X119.068 Y100.589 E0.63599
G1 X119.167 Y100.929 E0.64265
G1 X119.222 Y101.156 E0.64704
G1 X119.322 Y101.792 E0.65915
G1 X119.352 Y102.183 E0.66653
G1 X119.344 Y102.89 E0.67983
G1 X119.308 Y103.247 E0.68658
G1 X119.293 Y103.374 E0.68898
G1 X119.254 Y103.667 E0.69454
G1 X119.07 Y104.444 E0.70956
G1 X118.923 Y104.87 E0.71804
G1 X118.88 Y104.99 E0.72044
G1 X118.811 Y105.171 E0.72408
G1 X118.448 Y105.893 E0.73928
G1 X118.114 Y106.418 E0.75099
G1 X117.778 Y106.872 E0.76161
G1 X117.564 Y107.103 E0.76754
G1 X117.112 Y107.554 E0.77955
G1 X116.685 Y107.924 E0.79017
G1 X116.391 Y108.124 E0.79686
G1 X114.308 Y109.412 E0.84293
G1 X112.048 Y110.867 E0.89349
G1 X109.789 Y112.413 E0.94498
G1 X107.614 Y113.994 E0.99556
G1 X105.439 Y115.669 E1.0472
G1 X103.026 Y117.649 E1.10592
G1 X102.811 Y117.832 E1.11123
G1 X102.235 Y118.24 E1.12451
G1 X101.723 Y118.539 E1.13566
G1 X100.977 Y118.878 E1.15107
G1 X100.389 Y119.075 E1.16274
G1 X99.841 Y119.216 E1.17338
G1 X99.499 Y119.264 E1.17988
G1 X98.767 Y119.334 E1.19371
G1 X98.202 Y119.348 E1.20434
G1 X97.8 Y119.309 E1.21194
G1 X97.246 Y119.227 E1.22247
G1 X96.994 Y119.181 E1.22729
G1 X96.784 Y119.136 E1.23133
G1 X96.142 Y118.941 E1.24395
G1 X95.911 Y118.849 E1.24863
G1 X95.8 Y118.803 E1.25089
G1 X95.604 Y118.718 E1.25491
G1 X95.026 Y118.409 E1.26724
G1 X94.744 Y118.227 E1.27355
G1 X94.644 Y118.16 E1.27581
G1 X94.403 Y117.994 E1.28132
G1 X93.782 Y117.465 E1.29666
G1 X93.406 Y117.072 E1.3069
G1 X92.916 Y116.447 E1.32183
G1 X92.538 Y115.85 E1.33513
G1 X92.402 Y115.617 E1.3402
G1 X91.877 Y114.649 E1.36091
G1 X90.551 Y112.285 E1.4119
G1 X89.161 Y109.96 E1.46286
G1 X87.172 Y106.872 E1.53195
G1 X86.939 Y106.525 E1.53981
G1 X86.809 Y106.318 E1.54441
G1 X86.463 Y105.727 E1.55729
G1 X86.122 Y104.977 E1.57279
G1 X85.925 Y104.389 E1.58445
G1 X85.784 Y103.841 E1.5951
G1 X85.736 Y103.499 E1.60159
G1 X85.666 Y102.767 E1.61543
G1 X85.652 Y102.202 E1.62606
G1 X85.692 Y101.795 E1.63375
G1 X85.778 Y101.219 E1.6447
G1 X85.921 Y100.6 E1.65666
G1 X86.054 Y100.181 E1.66492
G1 X86.192 Y99.811 E1.67235
G1 X86.275 Y99.618 E1.6763
G1 X86.584 Y99.037 E1.68868
G1 X86.767 Y98.752 E1.69505
G1 X86.839 Y98.643 E1.69751
G1 X87.003 Y98.405 E1.70295
G1 X87.533 Y97.783 E1.71832
G1 X87.94 Y97.394 E1.72891
G0 F2400 X88.217 Y97.684
G1 F1200 X88.79 Y97.237 E1.74258
G1 X89.386 Y96.863 E1.75582
G1 X89.861 Y96.612 E1.76592
G1 X90.162 Y96.497 E1.77198
G1 X90.744 Y96.303 E1.78352
G1 X91.264 Y96.172 E1.79361
G1 X91.539 Y96.134 E1.79883
G1 X92.271 Y96.064 E1.81266
G1 X92.713 Y96.049 E1.82098
G1 X93.952 Y96.083 E1.8443
G1 X94.015 Y96.086 E1.84548
G1 X94.709 Y96.117 E1.85855
G1 X97.474 Y96.163 E1.91057
G1 X100.211 Y96.131 E1.96206
G1 X101.911 Y96.065 E1.99406
G1 X101.965 Y96.063 E1.99508
G1 X102.637 Y96.047 E2.00772
G1 X102.838 Y96.048 E2.0115
G1 X103.968 Y96.084 E2.03277
G1 X104.015 Y96.086 E2.03365
G1 X104.709 Y96.117 E2.04672
G1 X107.474 Y96.163 E2.09874
G1 X110.211 Y96.131 E2.15023
G1 X111.911 Y96.065 E2.18223
G1 X111.962 Y96.063 E2.18319
G1 X112.608 Y96.047 E2.19535
G1 X113.329 Y96.102 E2.20895
G1 X113.8 Y96.186 E2.21795
G1 X113.922 Y96.21 E2.22029
G1 X114.132 Y96.255 E2.22433
G1 X114.71 Y96.43 E2.23569
G1 X114.941 Y96.522 E2.24036
G1 X115.033 Y96.561 E2.24224
G1 X115.228 Y96.645 E2.24624
G1 X115.759 Y96.928 E2.25755
G1 X116.042 Y97.111 E2.26389
G1 X116.129 Y97.169 E2.26586
G1 X116.37 Y97.335 E2.27137
G1 X116.929 Y97.811 E2.28518
G1 X117.304 Y98.203 E2.29538
G1 X117.742 Y98.763 E2.30875
G1 X118.121 Y99.36 E2.32206
G1 X118.374 Y99.832 E2.33213
G1 X118.492 Y100.135 E2.33825
G1 X118.689 Y100.717 E2.3498
G1 X118.778 Y101.023 E2.3558
G1 X118.833 Y101.25 E2.36019
G1 X118.923 Y101.823 E2.3711
G1 X118.953 Y102.214 E2.37848
G1 X118.946 Y102.85 E2.39044
G1 X118.91 Y103.207 E2.39719
G1 X118.897 Y103.321 E2.39935
G1 X118.858 Y103.614 E2.40491
G1 X118.692 Y104.313 E2.41843
G1 X118.545 Y104.739 E2.4269
G1 X118.506 Y104.847 E2.42906
G1 X118.437 Y105.028 E2.43271
G1 X118.11 Y105.678 E2.44639
G1 X117.776 Y106.203 E2.4581
G1 X117.282 Y106.819 E2.47295
G1 X116.83 Y107.27 E2.48496
G1 X116.423 Y107.62 E2.49506
G1 X116.18 Y107.784 E2.50057
G1 X114.138 Y109.046 E2.54573
G1 X111.812 Y110.544 E2.59777
G1 X109.573 Y112.076 E2.6488
G1 X107.339 Y113.7 E2.70076
G1 X105.223 Y115.33 E2.751
G1 X102.717 Y117.386 E2.81197
G1 X102.551 Y117.527 E2.81607
G1 X102.033 Y117.895 E2.82802
G1 X101.521 Y118.194 E2.83918
G1 X100.85 Y118.499 E2.85304
G1 X100.262 Y118.696 E2.86471
G1 X99.742 Y118.828 E2.8748
G1 X99.461 Y118.866 E2.88013
G1 X98.729 Y118.936 E2.89396
G1 X98.193 Y118.947 E2.90405
G1 X97.859 Y118.913 E2.91036
G1 X97.305 Y118.831 E2.9209
G1 X97.078 Y118.79 E2.92524
G1 X96.868 Y118.745 E2.92928
G1 X96.29 Y118.57 E2.94064
G1 X96.059 Y118.478 E2.94531
G1 X95.959 Y118.436 E2.94735
G1 X95.763 Y118.351 E2.95137
G1 X95.243 Y118.073 E2.96246
G1 X94.961 Y117.891 E2.96878
G1 X94.871 Y117.831 E2.97081
G1 X94.63 Y117.665 E2.97632
G1 X94.071 Y117.189 E2.99013
G1 X93.695 Y116.796 E3.00036
G1 X93.254 Y116.233 E3.01381
G1 X92.876 Y115.636 E3.0271
G1 X92.753 Y115.426 E3.03168
G1 X92.228 Y114.458 E3.05239
G1 X90.909 Y112.105 E3.10314
G1 X89.495 Y109.74 E3.15497
G1 X87.536 Y106.698 E3.22303
G1 X87.271 Y106.303 E3.23198
G1 X87.154 Y106.116 E3.23612
G1 X86.808 Y105.525 E3.24901
G1 X86.501 Y104.85 E3.26296
G1 X86.304 Y104.262 E3.27462
G1 X86.172 Y103.742 E3.28471
G1 X86.134 Y103.461 E3.29005
G1 X86.064 Y102.729 E3.30388
G1 X86.053 Y102.193 E3.31396
G1 X86.087 Y101.854 E3.32037
G1 X86.173 Y101.278 E3.33133
G1 X86.303 Y100.721 E3.34209
G1 X86.436 Y100.302 E3.35035
G1 X86.56 Y99.969 E3.35704
G1 X86.643 Y99.776 E3.36099
G1 X86.921 Y99.253 E3.37213
G1 X87.104 Y98.968 E3.3785
G1 X87.169 Y98.87 E3.38072
G1 X87.333 Y98.632 E3.38615
G1 X87.81 Y98.073 E3.39998
G1 X88.217 Y97.684 E3.41057
G0 F2400 X88.493 Y97.973
G1 F1200 X89.003 Y97.575 E3.42273
G1 X89.599 Y97.201 E3.43597
G1 X90.047 Y96.967 E3.44548
G1 X90.288 Y96.876 E3.45032
G1 X90.87 Y96.682 E3.46186
G1 X91.577 Y96.533 E3.47545
G1 X92.309 Y96.463 E3.48929
G1 X92.702 Y96.449 E3.49668
G1 X93.941 Y96.483 E3.52
G1 X93.997 Y96.485 E3.52105
G1 X94.72 Y96.518 E3.53467
G1 X97.472 Y96.563 E3.58644
G1 X100.194 Y96.532 E3.63765
G1 X101.926 Y96.464 E3.67025
G1 X101.975 Y96.463 E3.67117
G1 X102.647 Y96.447 E3.68382
G1 X102.825 Y96.448 E3.68717
G1 X103.955 Y96.484 E3.70843
G1 X103.997 Y96.485 E3.70922
G1 X104.72 Y96.518 E3.72284
G1 X107.472 Y96.563 E3.77461
G1 X110.194 Y96.532 E3.82582
G1 X111.926 Y96.464 E3.85842
G1 X111.972 Y96.463 E3.85929
G1 X112.618 Y96.447 E3.87144
G1 X113.259 Y96.496 E3.88353
G1 X113.73 Y96.58 E3.89253
G1 X113.838 Y96.601 E3.8946
G1 X114.048 Y96.646 E3.89864
G1 X114.562 Y96.802 E3.90875
G1 X114.793 Y96.894 E3.91343
G1 X114.875 Y96.928 E3.91509
G1 X115.07 Y97.012 E3.91909
G1 X115.542 Y97.264 E3.92915
G1 X115.825 Y97.447 E3.93549
G1 X115.902 Y97.499 E3.93724
G1 X116.143 Y97.665 E3.94275
G1 X116.64 Y98.088 E3.95502
G1 X117.015 Y98.48 E3.96523
G1 X117.405 Y98.977 E3.97711
G1 X117.784 Y99.574 E3.99041
G1 X118.02 Y100.021 E3.99992
G1 X118.113 Y100.263 E4.0048
G1 X118.31 Y100.845 E4.01635
G1 X118.389 Y101.117 E4.02168
G1 X118.444 Y101.344 E4.02608
G1 X118.525 Y101.853 E4.03577
G1 X118.555 Y102.244 E4.04315
G1 X118.548 Y102.81 E4.0538
G1 X118.512 Y103.167 E4.06054
G1 X118.5 Y103.268 E4.06246
G1 X118.461 Y103.561 E4.06802
G1 X118.314 Y104.183 E4.08004
G1 X118.167 Y104.609 E4.08852
G1 X118.132 Y104.705 E4.09044
G1 X118.063 Y104.886 E4.09408
G1 X117.773 Y105.464 E4.10625
G1 X117.439 Y105.989 E4.11795
G1 X116.999 Y106.536 E4.13116
G1 X116.547 Y106.987 E4.14317
G1 X115.97 Y107.444 E4.15701
G1 X113.908 Y108.719 E4.20262
G1 X111.591 Y110.211 E4.25446
G1 X109.335 Y111.755 E4.30588
G1 X107.106 Y113.375 E4.35771
G1 X104.975 Y115.016 E4.40831
G1 X102.478 Y117.065 E4.46906
G1 X102.292 Y117.223 E4.47366
G1 X101.832 Y117.549 E4.48426
G1 X101.32 Y117.848 E4.49541
G1 X100.723 Y118.119 E4.50775
G1 X100.135 Y118.316 E4.51941
G1 X99.423 Y118.467 E4.5331
G1 X98.691 Y118.537 E4.54693
G1 X98.185 Y118.546 E4.55645
G1 X97.917 Y118.518 E4.56152
G1 X97.363 Y118.436 E4.57206
G1 X97.162 Y118.399 E4.5759
G1 X96.952 Y118.354 E4.57994
G1 X96.438 Y118.198 E4.59005
G1 X96.207 Y118.106 E4.59472
G1 X96.118 Y118.069 E4.59654
G1 X95.922 Y117.984 E4.60055
G1 X95.46 Y117.737 E4.61041
G1 X95.178 Y117.555 E4.61672
G1 X95.098 Y117.501 E4.61854
G1 X94.857 Y117.335 E4.62404
G1 X94.36 Y116.912 E4.63632
G1 X93.984 Y116.519 E4.64655
G1 X93.592 Y116.019 E4.6585
G1 X93.214 Y115.422 E4.67179
G1 X93.105 Y115.236 E4.67585
G1 X92.58 Y114.268 E4.69656
G1 X91.235 Y111.868 E4.74831
G1 X89.846 Y109.546 E4.79921
G1 X87.849 Y106.445 E4.86859
G1 X87.604 Y106.08 E4.87686
G1 X87.499 Y105.914 E4.88056
G1 X87.153 Y105.323 E4.89344
G1 X86.881 Y104.723 E4.90583
G1 X86.684 Y104.135 E4.91749
G1 X86.533 Y103.423 E4.93119
G1 X86.463 Y102.691 E4.94502
G1 X86.454 Y102.185 E4.95454
G1 X86.483 Y101.913 E4.95968
G1 X86.569 Y101.337 E4.97064
G1 X86.684 Y100.842 E4.9802
G1 X86.817 Y100.423 E4.98847
G1 X86.927 Y100.127 E4.99441
G1 X87.01 Y99.934 E4.99836
G1 X87.257 Y99.469 E5.00826
G1 X87.44 Y99.184 E5.01463
G1 X87.498 Y99.097 E5.0166
G1 X87.662 Y98.859 E5.02204
G1 X88.086 Y98.362 E5.03433
G1 X88.493 Y97.973 E5.04492
G1 F1500 E-1.45508
;MESH:FittingPin.stl(1)
G0 F2400 X89.425 Y100.769
G0 X90.493 Y101.481
G0 X90.359 Y102.84
G0 X90.259 Y102.842
;TYPE:WALL-INNER
G1 F1500 E5.04492
G1 F1200 X90.239 Y102.321 E5.05472
G1 X90.274 Y102.139 E5.05821
G1 X90.342 Y101.794 E5.06482
G1 X90.471 Y101.484 E5.07114
G1 X90.476 Y101.472 E5.07138
G1 X90.768 Y101.036 E5.08126
G1 X90.793 Y101.013 E5.08189
G1 X91.17 Y100.663 E5.09157
G1 X91.308 Y100.586 E5.09454
G1 X91.634 Y100.403 E5.10158
G1 X91.814 Y100.352 E5.1051
G1 X92.142 Y100.259 E5.11151
G1 X92.482 Y100.247 E5.11791
G1 X92.679 Y100.239 E5.12162
G1 X93.036 Y100.308 E5.12846
G1 X93.206 Y100.342 E5.13172
G1 X93.528 Y100.476 E5.13828
G1 X93.665 Y100.567 E5.14137
G1 X93.964 Y100.768 E5.14815
G1 X94.089 Y100.903 E5.15161
G1 X94.337 Y101.17 E5.15846
G1 X94.431 Y101.338 E5.16209
G1 X94.597 Y101.634 E5.16847
G1 X94.698 Y101.993 E5.17548
G1 X94.744 Y102.154 E5.17863
G1 X94.771 Y102.486 E5.1849
G1 X94.728 Y102.847 E5.19174
G1 X94.707 Y103.024 E5.19509
G1 X94.529 Y103.514 E5.2049
G1 X94.524 Y103.526 E5.20514
G1 X94.231 Y103.965 E5.21507
G1 X94.207 Y103.987 E5.21568
G1 X93.83 Y104.337 E5.22536
G1 X93.692 Y104.414 E5.22833
G1 X93.366 Y104.597 E5.23536
G1 X93.186 Y104.648 E5.23888
G1 X92.858 Y104.741 E5.2453
G1 X92.518 Y104.753 E5.2517
G1 X92.321 Y104.761 E5.2554
G1 X91.965 Y104.692 E5.26223
G1 X91.794 Y104.658 E5.26551
G1 X91.472 Y104.524 E5.27207
G1 X91.322 Y104.424 E5.27546
G1 X91.036 Y104.232 E5.28194
G1 X90.795 Y103.973 E5.28859
G1 X90.663 Y103.83 E5.29225
G1 X90.483 Y103.509 E5.29918
G1 X90.403 Y103.366 E5.30226
G1 X90.259 Y102.858 E5.31219
G1 X90.259 Y102.842 E5.31249
G0 F2400 X90.359 Y102.84
G0 X94.775 Y101.979
G0 X94.678 Y101.999
G1 F1200 X94.539 Y101.659 E5.31317
G1 X94.412 Y101.35 E5.3138
G1 X94.296 Y101.203 E5.31409
G1 X94.071 Y100.92 E5.31471
G1 X93.932 Y100.81 E5.31498
G1 X93.651 Y100.589 E5.31561
G1 X93.507 Y100.53 E5.31584
G1 X93.184 Y100.397 E5.31681
G1 X93.032 Y100.334 E5.31707
G1 X92.673 Y100.292 E5.31773
G1 X92.483 Y100.269 E5.31802
G1 X92.153 Y100.322 E5.31865
G1 X91.821 Y100.376 E5.31931
G1 X91.657 Y100.451 E5.31959
G1 X91.32 Y100.607 E5.32025
G1 X91.206 Y100.704 E5.32045
G1 X90.816 Y101.037 E5.32148
G1 X90.802 Y101.058
G1 X90.507 Y101.498 E5.32251
G1 X90.405 Y101.814 E5.32329
G1 X90.297 Y102.143 E5.32399
G1 X90.296 Y102.321 E5.32428
G1 X90.293 Y102.84 E5.32537
G1 X90.455 Y103.349 E5.32666
G1 X90.503 Y103.497 E5.32688
G1 X90.706 Y103.8 E5.32749
G1 X90.811 Y103.957 E5.32777
G1 X91.076 Y104.184 E5.32842
G1 X91.334 Y104.405 E5.32904
G1 X91.493 Y104.47 E5.3293
G1 X91.816 Y104.603 E5.33026
G1 X91.969 Y104.666 E5.33053
G1 X92.327 Y104.708 E5.33118
G1 X92.517 Y104.731 E5.33148
G1 X92.847 Y104.678 E5.3321
G1 X93.179 Y104.624 E5.33276
G1 X93.343 Y104.549 E5.33304
G1 X93.68 Y104.393 E5.3337
G1 X93.794 Y104.296 E5.33391
G1 X94.184 Y103.963 E5.33493
G1 X94.197 Y103.943
G1 X94.493 Y103.502 E5.33595
G1 X94.653 Y103.007 E5.33708
G1 X94.706 Y102.845 E5.33734
G1 X94.695 Y102.489 E5.33812
G1 X94.684 Y102.157 E5.33917
G1 X94.678 Y101.999 E5.33941
G0 F2400 X94.281 Y102.084
;TYPE:WALL-OUTER
G1 F1200 X94.063 Y101.554 E5.35019
G1 X93.787 Y101.205 E5.35856
G1 X93.447 Y100.938 E5.36669
G1 X92.93 Y100.725 E5.37721
G1 X92.491 Y100.673 E5.38553
G1 X91.939 Y100.762 E5.39605
G1 X91.538 Y100.947 E5.40435
G1 X91.117 Y101.306 E5.41476
G1 X90.87 Y101.674 E5.4231
G1 X90.697 Y102.208 E5.43366
G1 X90.693 Y102.779 E5.4444
G1 X90.867 Y103.321 E5.4551
G1 X91.113 Y103.689 E5.46343
G1 X91.545 Y104.059 E5.47413
G1 X92.07 Y104.275 E5.48481
G1 X92.509 Y104.327 E5.49312
G1 X93.061 Y104.238 E5.50364
G1 X93.462 Y104.053 E5.51195
G1 X93.883 Y103.694 E5.52236
G1 X94.13 Y103.326 E5.53069
G1 X94.304 Y102.788 E5.54133
G1 X94.281 Y102.084 E5.55458
G0 F2400 X94.205 Y101.9
G0 X94.668 Y101.712
G0 X93.481 Y100.564
G0 X93.716 Y100.12
G1 F1200 X94.228 Y100.463 E5.56617
G1 X94.662 Y100.932 E5.57819
G1 X94.969 Y101.479 E5.58999
G1 X95.14 Y102.084 E5.60182
G1 X95.173 Y102.492 E5.60952
G1 X95.098 Y103.119 E5.6214
G1 X94.884 Y103.708 E5.63318
G1 X94.537 Y104.228 E5.64494
G1 X94.068 Y104.662 E5.65696
G1 X93.521 Y104.969 E5.66876
G1 X92.92 Y105.139 E5.68051
G1 X92.289 Y105.163 E5.69239
G1 X91.678 Y105.043 E5.7041
G1 X91.284 Y104.88 E5.71212
G1 X90.772 Y104.537 E5.72371
G1 X90.338 Y104.068 E5.73573
G1 X90.031 Y103.521 E5.74753
G1 X89.861 Y102.92 E5.75928
G1 X89.837 Y102.289 E5.77116
G1 X89.957 Y101.678 E5.78287
G1 X90.12 Y101.284 E5.79089
G1 X90.463 Y100.772 E5.80249
G1 X90.932 Y100.338 E5.81451
G1 X91.479 Y100.031 E5.82631
G1 X92.08 Y99.861 E5.83805
G1 X92.711 Y99.837 E5.84993
G1 X93.322 Y99.957 E5.86164
G1 X93.716 Y100.12 E5.86967
G0 F2400 X93.882 Y100.231
G1 F1500 E-0.63033
;MESH:FittingPin.stl
G0 F2400 X93.604 Y100.646
G0 X94.678 Y101.999
G0 X95.914 Y101.649
G0 X98.998 Y102.075
G0 X100.258 Y102.322
G0 X100.259 Y102.842
;TYPE:WALL-INNER
G1 F1500 E5.86967
G1 F1200 X100.239 Y102.321 E5.87947
G1 X100.274 Y102.139 E5.88296
G1 X100.342 Y101.794 E5.88957
